X:439
T:La Romenella. RH.440
R:jig
S:Rev.R.Harrison’s MS,c1815,Cumbria
O:England
A:Temple Sowerby,Cumbria
Z:vmp.Simon Wilson. Review PJH, 2008.
M:6/8
L:1/8
Q:3/8=110
K:G
d|g2d d^cd|B2G GFG|\
A2A ABc|dBG G2 ((3d/e/f/)|!
g2d d^cd|B2G GFG|\
.A(ed) (cB).A|G3 G2:|!
|:B|A2D DEF|G2G GFG|\
A2A ABc|(ed).d d2d|!
g2d (d^cd)|B2G GFG|\
.A(ed) cBA|G3 G2:|

